svgs/sharp-solid/arrow-up-right-and-arrow-down-left-from-center.svg

<svg xmlns="http://www.w3.org/2000/svg" viewBox="0 0 512 512"><!--! Font Awesome Pro 6.6.0 by @fontawesome - https://fontawesome.com License - https://fontawesome.com/license (Commercial License) Copyright 2024 Fonticons, Inc. --><path d="M352 0L320 0l0 64 32 0 50.7 0L297.4 169.4 274.7 192 320 237.3l22.6-22.6L448 109.3l0 50.7 0 32 64 0 0-32 0-128 0-32L480 0 352 0zM214.6 342.6L237.3 320 192 274.7l-22.6 22.6L64 402.7 64 352l0-32L0 320l0 32L0 480l0 32 32 0 128 0 32 0 0-64-32 0-50.7 0L214.6 342.6z"/></svg>

<svg xmlns="http://www.w3.org/2000/svg" viewBox="0 0 512 512"><!--! Font Awesome Pro 6.4.2 by @fontawesome - https://fontawesome.com License - https://fontawesome.com/license (Commercial License) Copyright 2023 Fonticons, Inc. --><path d="M352 0H320V64h32 50.7L297.4 169.4 274.7 192 320 237.3l22.6-22.6L448 109.3V160v32h64V160 32 0H480 352zM214.6 342.6L237.3 320 192 274.7l-22.6 22.6L64 402.7V352 320H0v32V480v32H32 160h32V448H160 109.3L214.6 342.6z"/></svg>
